medium.svg

<?xml version="1.0" encoding="UTF-8"?>
<svg viewBox="0 0 8 8" version="1.1" xmlns="http://www.w3.org/2000/svg" xmlns:xlink="http://www.w3.org/1999/xlink">
    <title>Medium</title>
    <g id="Page-1" stroke="none" stroke-width="1" fill="none" fill-rule="evenodd">
        <path d="M4.51248048,2.27176298 C4.51248048,3.52638387 3.50231404,4.54344931 2.25627857,4.54344931 C1.01024309,4.54344931 0,3.52615391 0,2.27176298 C0,1.01737206 1.01016644,0 2.25627857,0 C3.50239069,0 4.51248048,1.01714209 4.51248048,2.27176298 M6.98761055,2.27176298 C6.98761055,3.45271792 6.48252733,4.41045198 5.85947127,4.41045198 C5.2364152,4.41045198 4.73133199,3.45271792 4.73133199,2.27176298 C4.73133199,1.09080804 5.23633855,0.133073982 5.85939461,0.133073982 C6.48245068,0.133073982 6.9875339,1.09050142 6.9875339,2.27176298 M8,2.27176298 C8,3.32960915 7.82238916,4.18769104 7.60323103,4.18769104 C7.3840729,4.18769104 7.20653872,3.32983912 7.20653872,2.27176298 C7.20653872,1.21368684 7.38414955,0.355834922 7.60323103,0.355834922 C7.82231251,0.355834922 8,1.21361019 8,2.27176298" id="Combined-Shape" fill="#000000" fill-rule="nonzero"></path>
    </g>
</svg>

<svg viewBox="0 0 8 8" xmlns="http://www.w3.org/2000/svg"><path d="M4.512 2.272a2.264 2.264 0 0 1-2.256 2.271A2.264 2.264 0 0 1 0 2.272 2.264 2.264 0 0 1 2.256 0a2.264 2.264 0 0 1 2.256 2.272m2.476 0c0 1.18-.505 2.138-1.129 2.138-.623 0-1.128-.957-1.128-2.138S5.236.133 5.86.133c.623 0 1.129.958 1.129 2.139m1.012 0c0 1.058-.178 1.916-.397 1.916-.219 0-.396-.858-.396-1.916 0-1.058.177-1.916.396-1.916.22 0 .397.858.397 1.916" fill="#000" fill-rule="nonzero"/></svg>
